boxicons/svg/regular/bx-bar-chart.svg

<svg xmlns="http://www.w3.org/2000/svg" width="24" height="24" viewBox="0 0 24 24"><path d="M9 6h2v14H9zm4 2h2v12h-2zm4-4h2v16h-2zM5 12h2v8H5z"/></svg>

<svg xmlns="http://www.w3.org/2000/svg" width="24" height="24" viewBox="0 0 24 24"><path d="M9 6H11V20H9zM13 8H15V20H13zM17 4H19V20H17zM5 12H7V20H5z"/></svg>
